X: 25590
T: Marmaduke's Hornpipe
R: reel
M: 4/4
K: Dmajor
|:F2|A2 A2 AdBA|F2 FF D2 D2|E2 AA E2 AA|E2 AA E2 AA|
A2 A2 AdBA|F2 FF D2 D2|E2 AA E2 AA|F3 E D2:|
|:A2|d2 e2 fefe|d2 e2 gege|d2 e2 f2 df|e2 A2 ABcA|
d2 e2 fefe|d2 e2 g3 a|b2 a2 g2 e2|d4 d2:|

